public/svg/myTaxi.svg

<svg width="163" height="98" viewBox="0 0 163 98" fill="none" xmlns="http://www.w3.org/2000/svg">
<path d="M146.857 0H16C7.16344 0 0 7.16344 0 16V81.7143C0 90.5509 7.16344 97.7143 16 97.7143H146.857C155.694 97.7143 162.857 90.5509 162.857 81.7143V16C162.857 7.16344 155.694 0 146.857 0Z" fill="#FDE61D"/>
<path fill-rule="evenodd" clip-rule="evenodd" d="M58.0267 22.3931H104.83C106.515 22.3931 107.892 23.7665 107.892 25.4449V72.2698C107.892 73.9487 106.515 75.3216 104.83 75.3216H58.0267C56.3422 75.3216 54.9639 73.9487 54.9639 72.2698V25.4449C54.9639 23.7665 56.3422 22.3931 58.0267 22.3931Z" fill="#FDE61D"/>
<path fill-rule="evenodd" clip-rule="evenodd" d="M102.703 48.6719C103.328 48.6719 103.84 49.1795 103.84 49.7999V67.0403C103.84 67.6607 103.293 67.9661 102.703 68.1687L88.649 72.9834L90.41 68.1687H60.777C60.151 68.1687 59.6396 67.6611 59.6396 67.0403V49.7999C59.6396 49.1795 60.151 48.6719 60.777 48.6719H102.703Z" fill="#1C1B19"/>
<path fill-rule="evenodd" clip-rule="evenodd" d="M66.4209 30.0584C66.4209 29.8197 66.6179 29.6245 66.8579 29.6245H71.3269C71.5679 29.6245 71.8099 29.8141 71.8659 30.0462L73.7229 37.7026C73.7789 37.9347 73.8709 37.9347 73.9269 37.7026L75.7689 30.0462C75.8249 29.8141 76.0669 29.6245 76.3079 29.6245H80.7729C81.0129 29.6245 81.2099 29.8197 81.2099 30.0584V43.1608C81.2099 43.3994 81.0129 43.5946 80.7729 43.5946H78.3209C78.0799 43.5946 77.8829 43.3994 77.8829 43.1608V33.3742C77.8829 33.1356 77.8369 33.1304 77.7809 33.3625L75.4209 43.1725C75.3649 43.4046 75.1219 43.5946 74.8819 43.5946H72.7449C72.5039 43.5946 72.2609 43.4046 72.2059 43.1725L69.8499 33.3625C69.7939 33.1304 69.7479 33.1356 69.7479 33.3742V43.1608C69.7479 43.3994 69.5519 43.5946 69.3109 43.5946H66.8579C66.6179 43.5946 66.4209 43.3994 66.4209 43.1608V30.0584Z" fill="#252522"/>
<path fill-rule="evenodd" clip-rule="evenodd" d="M82.706 29.992C82.578 29.7898 82.671 29.6245 82.911 29.6245H86.55C86.79 29.6245 87.083 29.795 87.2 30.0033L89.423 33.9586C89.54 34.1673 89.732 34.1673 89.849 33.959L92.077 30.0033C92.194 29.7946 92.487 29.6245 92.727 29.6245H96.341C96.582 29.6245 96.675 29.7898 96.547 29.9924L91.898 37.3755C91.771 37.5777 91.667 37.9386 91.667 38.1772V43.1608C91.667 43.3994 91.47 43.5946 91.229 43.5946H88.032C87.792 43.5946 87.595 43.3994 87.595 43.1608V38.1772C87.595 37.9386 87.49 37.5781 87.363 37.3755L82.706 29.992Z" fill="#252522"/>
<path fill-rule="evenodd" clip-rule="evenodd" d="M61.1514 52.0481C61.1514 51.8095 61.3484 51.6143 61.5894 51.6143H71.7584C71.9984 51.6143 72.1954 51.8095 72.1954 52.0481V54.5023C72.1954 54.7409 71.9984 54.9362 71.7584 54.9362H68.9274C68.6874 54.9362 68.4904 55.1314 68.4904 55.37V64.6347C68.4904 64.8733 68.2934 65.0685 68.0534 65.0685H65.2944C65.0544 65.0685 64.8574 64.8733 64.8574 64.6347V55.37C64.8574 55.1314 64.6604 54.9362 64.4194 54.9362H61.5894C61.3484 54.9362 61.1514 54.7409 61.1514 54.5023V52.0481Z" fill="#FDE61D"/>
<path fill-rule="evenodd" clip-rule="evenodd" d="M78.7628 59.9384C79.0038 59.9384 79.1497 59.7496 79.0877 59.5193L78.0147 55.521C77.9537 55.2902 77.8527 55.2906 77.7917 55.521L76.7298 59.5188C76.6688 59.7496 76.8158 59.9384 77.0557 59.9384H78.7628ZM80.0648 63.2672C80.0048 63.0364 79.7577 62.8477 79.5167 62.8477H76.2667C76.0267 62.8477 75.7808 63.0368 75.7208 63.2681L75.3647 64.6481C75.3047 64.8794 75.0598 65.0685 74.8188 65.0685H71.9838C71.7438 65.0685 71.6077 64.8828 71.6827 64.6559L75.8308 52.0268C75.9048 51.7999 76.1628 51.6143 76.4028 51.6143H79.4917C79.7317 51.6143 79.9898 51.7999 80.0648 52.0268L84.2117 64.6559C84.2857 64.8828 84.1498 65.0685 83.9098 65.0685H80.9798C80.7398 65.0685 80.4917 64.8794 80.4317 64.6486L80.0648 63.2672Z" fill="#FDE61D"/>
<path fill-rule="evenodd" clip-rule="evenodd" d="M84.9151 51.9917C84.7961 51.7843 84.8961 51.6143 85.1371 51.6143H88.2641C88.5041 51.6143 88.7891 51.7891 88.8961 52.0025L90.5871 55.3648C90.6941 55.5783 90.8681 55.5774 90.9731 55.3626L92.6161 52.0047C92.7211 51.79 93.0041 51.6143 93.2451 51.6143H96.3321C96.5721 51.6143 96.6731 51.7848 96.5561 51.9934L93.3231 57.7509C93.2061 57.9596 93.2081 58.2993 93.3271 58.5067L96.8971 64.692C97.0171 64.8989 96.9171 65.0685 96.6771 65.0685H93.4701C93.2291 65.0685 92.9401 64.8963 92.8271 64.6854L90.9161 61.1288C90.8031 60.9184 90.6181 60.9184 90.5041 61.1288L88.5941 64.6854C88.4811 64.8963 88.1911 65.0685 87.9511 65.0685H84.7681C84.5271 65.0685 84.4281 64.8989 84.5481 64.692L88.1681 58.4334C88.2881 58.2264 88.2891 57.8872 88.1701 57.6798L84.9151 51.9917Z" fill="#FDE61D"/>
<path fill-rule="evenodd" clip-rule="evenodd" d="M98.4219 52.0481C98.4219 51.8095 98.6189 51.6143 98.8589 51.6143H101.625C101.866 51.6143 102.063 51.8095 102.063 52.0481V64.6347C102.063 64.8733 101.866 65.0685 101.625 65.0685H98.8589C98.6189 65.0685 98.4219 64.8733 98.4219 64.6347V52.0481Z" fill="#FDE61D"/>
</svg>

<svg xmlns="http://www.w3.org/2000/svg" width="163" height="98" fill="none" xmlns:v="https://vecta.io/nano"><g fill="#fde61d"><path d="M146.857 0H16C7.163 0 0 7.163 0 16v65.714c0 8.837 7.163 16 16 16h130.857c8.837 0 16-7.163 16-16V16c0-8.837-7.163-16-16-16z"/><path d="M58.027 22.393h46.803c1.685 0 3.062 1.373 3.062 3.052V72.27c0 1.679-1.377 3.052-3.062 3.052H58.027c-1.684 0-3.063-1.373-3.063-3.052V25.445c0-1.678 1.378-3.052 3.063-3.052z" fill-rule="evenodd"/></g><path fill-rule="evenodd" d="M102.703 48.672c.625 0 1.137.508 1.137 1.128v17.24c0 .62-.547.926-1.137 1.128l-14.054 4.815 1.761-4.815H60.777c-.626 0-1.137-.508-1.137-1.128V49.8c0-.62.511-1.128 1.137-1.128h41.926z" fill="#1c1b19"/><path fill-rule="evenodd" d="M66.421 30.058c0-.239.197-.434.437-.434h4.469c.241 0 .483.19.539.422l1.857 7.656c.056.232.148.232.204 0l1.842-7.656c.056-.232.298-.422.539-.422h4.465c.24 0 .437.195.437.434V43.16c0 .239-.197.434-.437.434h-2.452c-.241 0-.438-.195-.438-.434v-9.787c0-.239-.046-.244-.102-.012l-2.36 9.81c-.056.232-.299.422-.539.422h-2.137c-.241 0-.484-.19-.539-.422l-2.356-9.81c-.056-.232-.102-.227-.102.012v9.787c0 .239-.196.434-.437.434h-2.453c-.24 0-.437-.195-.437-.434V30.058zm16.285-.066c-.128-.202-.035-.367.205-.367h3.639a.83.83 0 0 1 .65.379l2.223 3.955c.117.209.309.209.426 0l2.228-3.956c.117-.209.41-.379.65-.379h3.614c.241 0 .334.165.206.368l-4.649 7.383a1.78 1.78 0 0 0-.231.802v4.984c0 .239-.197.434-.438.434h-3.197c-.24 0-.437-.195-.437-.434v-4.984c0-.239-.105-.599-.232-.802l-4.657-7.384z" fill="#252522"/><path fill-rule="evenodd" d="M61.151 52.048c0-.239.197-.434.438-.434h10.169c.24 0 .437.195.437.434v2.454c0 .239-.197.434-.437.434h-2.831c-.24 0-.437.195-.437.434v9.265c0 .239-.197.434-.437.434h-2.759c-.24 0-.437-.195-.437-.434V55.37c0-.239-.197-.434-.438-.434h-2.83c-.241 0-.438-.195-.438-.434v-2.454zm17.612 7.89c.241 0 .387-.189.325-.419l-1.073-3.998c-.061-.231-.162-.23-.223 0l-1.062 3.998c-.061.231.086.42.326.42h1.707zm1.302 3.329a.6.6 0 0 0-.548-.419h-3.25c-.24 0-.486.189-.546.42l-.356 1.38c-.06.231-.305.42-.546.42h-2.835c-.24 0-.376-.186-.301-.413l4.148-12.629c.074-.227.332-.413.572-.413h3.089c.24 0 .498.186.573.413l4.147 12.629c.074.227-.062.413-.302.413h-2.93a.6.6 0 0 1-.548-.42l-.367-1.381zm4.85-11.275c-.119-.207-.019-.377.222-.377h3.127a.78.78 0 0 1 .632.388l1.691 3.362c.107.213.281.213.386-.002l1.643-3.358a.77.77 0 0 1 .629-.39h3.087c.24 0 .341.17.224.379l-3.233 5.758c-.117.209-.115.548.004.756l3.57 6.185c.12.207.02.377-.22.377H93.47c-.241 0-.53-.172-.643-.383l-1.911-3.557c-.113-.21-.298-.21-.412 0l-1.91 3.557c-.113.211-.403.383-.643.383h-3.183c-.241 0-.34-.17-.22-.377l3.62-6.259a.84.84 0 0 0 .002-.754l-3.255-5.688zm13.507.056c0-.239.197-.434.437-.434h2.766c.241 0 .438.195.438.434v12.587c0 .239-.197.434-.438.434h-2.766c-.24 0-.437-.195-.437-.434V52.048z" fill="#fde61d"/></svg>
